X:348
T:El Pandeiru (MQ 042)
R:Panderu
C:Tradicional
S:Msica Tradicional Asturiana, (C) Tello & Tito. Asturies, 2001.
S:http://pagina.de/MusTradAst <telloytito@asturies.org>
N:Es uno de los llamados "bailes del panderu", est recogido de "Maojo", un gaitero muy popular ya fallecido de la zona de Villaviciosas.
A:Asturies
Z:Manolo Quirs 042
M:4/4
L:1/8
Q:1/4=120
K:C
CC/D/ ED/E/ FE/F/
|GE CC/D/ ED/E/ DC/D/|C2 CC/D/ ED/E/ FE/F/|
GE CC/D/ ED/E/ DC/D/|C2 C/D/E/F/ GF/E/ FE/D/|
EC C/D/E/F/ GF/E/ FE/D/|E2 C/D/E/F/ GF/E/ FE/D/|
EC C/D/E/F/ GF/E/ DC/D/|C2 C/G/E/G/ C/G/E/G/ C/D/E/F/|
G2 D/G/F/G/ D/G/F/G/ D/F/E/D/|C2 C/G/E/G/ C/G/E/G/ C/D/E/F/|
G2 D/G/F/G/ D/G/F/G/ D/F/E/D/|CE GE GF DG|C8|
